src/assets/plan_icon_5.svg

<svg fill="none" height="50" viewBox="0 0 50 50" width="50" xmlns="http://www.w3.org/2000/svg" xmlns:xlink="http://www.w3.org/1999/xlink"><clipPath id="a"><path d="m0 0h50v50h-50z"/></clipPath><g clip-path="url(#a)" fill="#f5f5f5"><path d="m25 0c-13.7855 0-25 11.2145-25 25s11.2145 25 25 25 25-11.2145 25-25-11.2145-25-25-25zm0 48.3871c-12.8951 0-23.38706-10.492-23.38706-23.3871s10.49196-23.38706 23.38706-23.38706 23.3871 10.49196 23.3871 23.38706-10.492 23.3871-23.3871 23.3871z"/><path d="m34.6934 14.2153-13.1153 7.033c-.0144.0081-.0225.0234-.0363.0323-.0533.0331-.0935.0775-.1379.1226-.0443.0443-.0894.0848-.1226.1379-.0089.0136-.0241.0217-.0323.0362l-7.0338 13.1161c-.1686.3137-.1113.7.1403.9516.1549.1549.3612.2363.5702.2363.1299 0 .2604-.0315.3814-.096l13.1161-7.0338c.0145-.0082.0226-.0234.0362-.0323.0533-.0332.0935-.0775.1379-.1226.0443-.0444.0895-.0848.1226-.1379.0089-.0136.0242-.0218.0323-.0362l7.033-13.1153c.1686-.3137.1113-.7-.1403-.9516-.2515-.2524-.637-.3089-.9515-.1403zm-17.7935 18.8854 5.2581-9.804 4.5467 4.5468zm10.9443-6.3983-4.5467-4.5468 9.804-5.258z"/></g></svg>

<svg width="50" height="50" viewBox="0 0 50 50" fill="none" xmlns="http://www.w3.org/2000/svg">
<g clip-path="url(#clip0_193_604)">
<path d="M25 0C11.2145 0 0 11.2145 0 25C0 38.7855 11.2145 50 25 50C38.7855 50 50 38.7855 50 25C50 11.2145 38.7855 0 25 0ZM25 48.3871C12.1049 48.3871 1.61294 37.8951 1.61294 25C1.61294 12.1049 12.1049 1.61294 25 1.61294C37.8951 1.61294 48.3871 12.1049 48.3871 25C48.3871 37.8951 37.8951 48.3871 25 48.3871Z" fill="#F5F5F5"/>
<path d="M34.6934 14.2153L21.5781 21.2483C21.5637 21.2564 21.5556 21.2717 21.5418 21.2806C21.4885 21.3137 21.4483 21.3581 21.4039 21.4032C21.3596 21.4475 21.3145 21.488 21.2813 21.5411C21.2724 21.5547 21.2572 21.5628 21.249 21.5773L14.2152 34.6934C14.0466 35.0071 14.1039 35.3934 14.3555 35.645C14.5104 35.7999 14.7167 35.8813 14.9257 35.8813C15.0556 35.8813 15.1861 35.8498 15.3071 35.7853L28.4232 28.7515C28.4377 28.7433 28.4458 28.7281 28.4594 28.7192C28.5127 28.686 28.5529 28.6417 28.5973 28.5966C28.6416 28.5522 28.6868 28.5118 28.7199 28.4587C28.7288 28.4451 28.7441 28.4369 28.7522 28.4225L35.7852 15.3072C35.9538 14.9935 35.8965 14.6072 35.6449 14.3556C35.3934 14.1032 35.0079 14.0467 34.6934 14.2153ZM16.8999 33.1007L22.158 23.2967L26.7047 27.8435L16.8999 33.1007ZM27.8442 26.7024L23.2975 22.1556L33.1015 16.8976L27.8442 26.7024Z" fill="#F5F5F5"/>
</g>
<defs>
<clipPath id="clip0_193_604">
<rect width="50" height="50" fill="white"/>
</clipPath>
</defs>
</svg>
